X:1
T:Make Me a Pallet on Your Floor
M:4/4
L:1/4
K:G
 E G2 E| G G A ^A| B4-| B3 z| E G2 E| G G A ^A| B4-| B2 G G| B2 B B|\
 A2 B A| G G2 E| G4| B B2 G| D D A F| G4-| G2 z2|
